frontend/src/assets/images/icons/telefone.svg

<svg width="478" height="478" viewBox="0 0 478 478" fill="none" xmlns="http://www.w3.org/2000/svg">
<path d="M475.009 380.316L472.634 373.16C467.009 356.441 448.572 339.004 431.634 334.41L368.946 317.285C351.946 312.66 327.696 318.879 315.258 331.316L292.57 354.004C210.117 331.724 145.461 267.066 123.211 184.629L145.9 161.94C158.338 149.502 164.556 125.284 159.931 108.284L142.837 45.565C138.212 28.596 120.743 10.1591 104.056 4.59605L96.9001 2.19005C80.1811 -3.37295 56.3371 2.25305 43.9001 14.6901L9.96211 48.659C3.89911 54.6901 0.0241079 71.9401 0.0241079 72.0031C-1.16289 179.753 41.0871 283.565 117.305 359.784C193.336 435.815 296.759 478.003 404.196 477.097C404.758 477.097 422.508 473.284 428.571 467.252L462.509 433.314C474.946 420.878 480.571 397.035 475.009 380.316Z" fill="#53220D"/>
</svg>

<?xml version="1.0" encoding="iso-8859-1"?>
<!-- Generator: Adobe Illustrator 16.0.0, SVG Export Plug-In . SVG Version: 6.00 Build 0)  -->
<!DOCTYPE svg PUBLIC "-//W3C//DTD SVG 1.1//EN" "http://www.w3.org/Graphics/SVG/1.1/DTD/svg11.dtd">
<svg version="1.1" id="Capa_1" xmlns="http://www.w3.org/2000/svg" xmlns:xlink="http://www.w3.org/1999/xlink" x="0px" y="0px"
	 width="477.156px" height="477.156px" viewBox="0 0 477.156 477.156" style="enable-background:new 0 0 477.156 477.156;"
	 xml:space="preserve">
<g>
	<path d="M475.009,380.316l-2.375-7.156c-5.625-16.719-24.062-34.156-41-38.75l-62.688-17.125c-17-4.625-41.25,1.594-53.688,14.031
		l-22.688,22.688c-82.453-22.28-147.109-86.938-169.359-169.375L145.9,161.94c12.438-12.438,18.656-36.656,14.031-53.656
		l-17.094-62.719c-4.625-16.969-22.094-35.406-38.781-40.969L96.9,2.19c-16.719-5.563-40.563,0.063-53,12.5L9.962,48.659
		C3.899,54.69,0.024,71.94,0.024,72.003c-1.187,107.75,41.063,211.562,117.281,287.781
		c76.031,76.031,179.454,118.219,286.891,117.313c0.562,0,18.312-3.813,24.375-9.845l33.938-33.938
		C474.946,420.878,480.571,397.035,475.009,380.316z"/>
</g>
<g>
</g>
<g>
</g>
<g>
</g>
<g>
</g>
<g>
</g>
<g>
</g>
<g>
</g>
<g>
</g>
<g>
</g>
<g>
</g>
<g>
</g>
<g>
</g>
<g>
</g>
<g>
</g>
<g>
</g>
</svg>
